X:165
T:Gen'l Election. VWMLa.165, The
%%VWML:Anon2-3049-p102-0
F:http://www.vwml.org/record/Anon2/3049/p102
S:Anon. MS, late 18thC, Vaughan Williams Mem. Library
N:Cotillion=Slow Jig? PJH.
N:I un-dotted the final note. PJH.
O:England;Yorkshire
Z:vmp/efdss.Simon Wilson. Reviewed PJH 2008.
M:6/8
L:1/8
Q:3/8=100
K:G
d|(dB).g (gd).b|agf g2d|ege dcB|AAA A2d|\
(dB).g (gd).b|agf g2e|ded cBA|GGG G2:|
|:d|!turn!(gfg) bge|!turn!(fef) afd|egf ge^c|dAF D2B|\
cde fga|Bcd efg|AcB cAF|G3 G,2:|
T:Ham Frolick. VWMLa.166
T:Greensleeves,aka. VWMLa.166
R:jig
S:Anon. MS, late 18thC, Vaughan Williams Mem. Library
N:...ish.
N:I can hear no resemblance to Greensleeeves. PJH.
O:England;Yorkshire
Z:vmp/efdss.Simon Wilson. Reviewed PJH 2008.
M:6/8
L:1/8
Q:3/8=100
K:G
d|g2f gab|afd def|gfg dcd|{c}BAB G2d|\
g2f gab|afd dgb|afd Ad^c|d3- d2:|
|:d|Bcd dBd|ece d2d|g2d dcB|AFD D2d|\
Bcd dBd|ece dgb|bag dgf|g3- g2:|
